icons/networks/logos/rsk.svg

<svg width="43" height="20" viewBox="0 0 43 20" fill="none" xmlns="http://www.w3.org/2000/svg">
<path fill-rule="evenodd" clip-rule="evenodd" d="M42.493 14.318H40.475L38.4735 10.795L37.407 10.912V14.318H35.619V2.4975H37.407V9.326L38.4245 9.226L40.36 5.97H42.3615L39.999 9.877L42.493 14.318ZM31.3785 9.351C32.2915 9.5125 32.9395 9.766 33.3225 10.1105C33.705 10.4555 33.8965 11.068 33.8965 11.947C33.8965 12.8265 33.62 13.472 33.068 13.884C32.5155 14.2955 31.709 14.5015 30.648 14.5015C29.981 14.5015 29.139 14.407 28.122 14.2175L27.613 14.1345L27.679 12.615C28.9915 12.793 29.937 12.882 30.517 12.882C31.0965 12.882 31.5095 12.81 31.7555 12.665C32.0015 12.5205 32.1245 12.281 32.1245 11.947C32.1245 11.6135 32.007 11.3825 31.772 11.2545C31.5365 11.1265 30.9735 10.987 30.0825 10.837C29.1905 10.6865 28.5375 10.4505 28.122 10.1275C27.706 9.8045 27.4985 9.215 27.4985 8.3575C27.4985 7.5005 27.7855 6.8605 28.3595 6.4375C28.934 6.0145 29.6695 5.803 30.566 5.803C31.266 5.803 32.1245 5.8925 33.142 6.0705L33.6505 6.1705L33.6175 7.69C32.327 7.512 31.392 7.4225 30.8125 7.4225C30.2325 7.4225 29.8305 7.4925 29.6065 7.6315C29.382 7.7705 29.27 7.9905 29.27 8.291C29.27 8.5915 29.393 8.803 29.6395 8.925C29.8855 9.048 30.465 9.1895 31.3785 9.351ZM23.791 8.491V14.318H22.0025V5.97H23.7745V6.972C24.704 6.36 25.6335 5.9645 26.5635 5.7865V7.6065C25.6225 7.7955 24.819 8.0405 24.152 8.341L23.791 8.491ZM18 13.9585C18 15.0705 17.115 15.972 16.0225 15.972C15.5075 15.9712 15.0137 15.7666 14.649 15.403L10.9325 17.582C10.959 17.713 10.9775 17.847 10.9775 17.986C10.9775 19.0985 10.092 20 9.00002 20C7.90802 20 7.02251 19.0985 7.02251 17.986C7.02251 17.8445 7.04151 17.7085 7.06901 17.576L3.35202 15.402C2.9872 15.7662 2.49301 15.9711 1.97751 15.972C0.885015 15.972 1.49297e-05 15.0705 1.49297e-05 13.9585C-0.00165984 13.5247 0.137609 13.1021 0.396861 12.7543C0.656113 12.4065 1.02132 12.1523 1.43751 12.03V7.97C1.02132 7.84769 0.656113 7.5935 0.396861 7.2457C0.137609 6.89789 -0.00165984 6.47529 1.49297e-05 6.0415C1.49297e-05 4.9295 0.885015 4.028 1.97751 4.028C2.56501 4.028 3.08701 4.294 3.44901 4.7085L7.11001 2.55C7.0602 2.3761 7.03364 2.19637 7.03101 2.0155C7.03101 0.9025 7.91252 0 9.00002 0C10.0875 0 10.969 0.9025 10.969 2.0155C10.969 2.173 10.947 2.3245 10.9135 2.4715L14.6045 4.642C14.7867 4.44856 15.0064 4.29433 15.2502 4.18875C15.494 4.08318 15.7568 4.02848 16.0225 4.028C17.115 4.028 18 4.9295 18 6.0415C18.0017 6.47529 17.8624 6.89789 17.6032 7.2457C17.3439 7.5935 16.9787 7.84769 16.5625 7.97V12.03C16.9787 12.1523 17.3439 12.4065 17.6032 12.7543C17.8624 13.1021 18.0017 13.5247 18 13.9585ZM14.1095 14.442C14.0688 14.284 14.0473 14.1217 14.0455 13.9585C14.0455 13.821 14.0595 13.687 14.085 13.5575L10.7135 11.5855C10.371 12.1905 9.90701 12.726 9.54702 13.095V16.06C9.88601 16.16 10.185 16.352 10.423 16.6035L14.1095 14.442ZM9.00002 9.9375C9.30202 9.9375 9.54702 10.1825 9.54702 10.4845V11.746C9.92652 11.314 10.3635 10.683 10.3635 10.0695C10.3635 8.9865 9.00002 7.847 9.00002 7.847C9.00002 7.847 7.63651 8.9865 7.63651 10.0695C7.63651 10.683 8.07351 11.314 8.45302 11.746V10.4845C8.45302 10.1825 8.69802 9.9375 9.00002 9.9375ZM9.00002 18.889C9.48952 18.889 9.88652 18.4845 9.88652 17.986C9.88652 17.4875 9.48952 17.0835 9.00002 17.0835C8.51052 17.0835 8.11351 17.4875 8.11351 17.986C8.11351 18.4845 8.51052 18.889 9.00002 18.889ZM7.57901 16.601C7.81776 16.347 8.11922 16.1604 8.45302 16.06V13.095C8.10452 12.7375 7.65751 12.225 7.31801 11.644L3.92251 13.635C3.93951 13.741 3.95451 13.8475 3.95451 13.9585C3.95451 14.1265 3.92852 14.2875 3.89002 14.4435L7.57901 16.601ZM1.09101 13.9585C1.09101 14.457 1.48751 14.861 1.97751 14.861C2.46701 14.861 2.86352 14.457 2.86352 13.9585C2.86352 13.4595 2.46701 13.0555 1.97751 13.0555C1.48751 13.0555 1.09101 13.4595 1.09101 13.9585ZM1.97751 5.139C1.48751 5.139 1.09101 5.543 1.09101 6.0415C1.09101 6.5405 1.48751 6.9445 1.97751 6.9445C2.46701 6.9445 2.86352 6.5405 2.86352 6.0415C2.86352 5.543 2.46701 5.139 1.97751 5.139ZM3.35202 7.4855C3.12159 7.7097 2.83995 7.87429 2.53152 7.965V12.0365C2.89152 12.147 3.21151 12.3515 3.45451 12.632L6.89051 10.6175C6.84506 10.4383 6.82072 10.2544 6.81801 10.0695C6.81801 9.897 6.84501 9.7235 6.88451 9.551L3.35202 7.4855ZM7.67951 3.5015L3.92251 5.7165C3.93951 5.823 3.95451 5.9305 3.95451 6.0415C3.95451 6.21 3.92852 6.371 3.89002 6.527L7.30251 8.523C7.64451 7.9295 8.09902 7.4085 8.45302 7.0455V3.9415C8.16508 3.85555 7.90054 3.70507 7.67951 3.5015ZM9.00002 0.972C8.51052 0.972 8.11351 1.3765 8.11351 1.875C8.11351 2.3735 8.51052 2.778 9.00002 2.778C9.48952 2.778 9.88652 2.3735 9.88652 1.875C9.88652 1.3765 9.48952 0.972 9.00002 0.972ZM14.0895 5.6225L10.387 3.445C10.157 3.6795 9.86701 3.847 9.54702 3.9425V7.0455C9.90152 7.409 10.3565 7.931 10.6985 8.5255L14.1095 6.5255C14.0688 6.36733 14.0473 6.20482 14.0455 6.0415C14.0455 5.8975 14.0615 5.758 14.0895 5.6225ZM14.649 7.486L11.117 9.557C11.1555 9.7275 11.182 9.899 11.182 10.0695C11.182 10.23 11.1575 10.3915 11.1235 10.5525L14.5885 12.579C14.8285 12.3231 15.1322 12.1357 15.4685 12.036V7.965C15.1604 7.87446 14.8791 7.71003 14.649 7.486ZM16.909 6.0415C16.909 5.543 16.5125 5.139 16.0225 5.139C15.8912 5.13968 15.7617 5.16992 15.6436 5.22748C15.5255 5.28504 15.4219 5.36844 15.3405 5.4715L15.1935 5.731C15.1567 5.83042 15.1374 5.93548 15.1365 6.0415C15.1365 6.5405 15.533 6.9445 16.0225 6.9445C16.5125 6.9445 16.909 6.5405 16.909 6.0415ZM16.0225 13.0555C15.533 13.0555 15.1365 13.4595 15.1365 13.9585C15.1365 14.457 15.533 14.861 16.0225 14.861C16.5125 14.861 16.909 14.457 16.909 13.9585C16.909 13.4595 16.5125 13.0555 16.0225 13.0555Z" fill="#27AA8B"/>
</svg>

<svg viewBox="0 0 43 20" fill="none" xmlns="http://www.w3.org/2000/svg">
  <path fill-rule="evenodd" clip-rule="evenodd" d="M42.493 14.318h-2.018l-2.002-3.523-1.066.117v3.406h-1.788V2.498h1.788v6.828l1.018-.1L40.36 5.97h2.002l-2.363 3.907 2.494 4.441ZM31.378 9.351c.913.161 1.562.415 1.944.76.383.345.575.957.575 1.836 0 .88-.277 1.525-.829 1.937-.552.412-1.359.617-2.42.617-.667 0-1.509-.094-2.526-.284l-.509-.083.066-1.519c1.313.178 2.258.267 2.838.267.58 0 .992-.072 1.239-.217.245-.144.368-.384.368-.718 0-.333-.117-.564-.352-.692-.235-.129-.798-.268-1.69-.418-.892-.15-1.544-.386-1.96-.71-.416-.322-.623-.912-.623-1.77 0-.856.287-1.496.86-1.92.575-.423 1.31-.634 2.207-.634.7 0 1.558.09 2.576.268l.508.1-.032 1.519c-1.291-.178-2.226-.268-2.806-.268-.58 0-.982.07-1.206.21-.224.139-.336.359-.336.659 0 .3.123.512.37.634.245.123.825.264 1.738.426Zm-7.587-.86v5.827h-1.788V5.97h1.771v1.002c.93-.612 1.86-1.008 2.79-1.186v1.82c-.942.19-1.745.434-2.412.735l-.361.15ZM18 13.959c0 1.111-.885 2.013-1.977 2.013a1.95 1.95 0 0 1-1.374-.569l-3.716 2.179c.026.131.044.265.044.404C10.977 19.099 10.092 20 9 20s-1.977-.901-1.977-2.014c0-.142.019-.277.046-.41l-3.717-2.174a1.95 1.95 0 0 1-1.374.57C.885 15.972 0 15.07 0 13.959a2.002 2.002 0 0 1 1.438-1.929V7.97A2.002 2.002 0 0 1 0 6.042C0 4.93.885 4.027 1.978 4.027c.587 0 1.109.266 1.471.68L7.11 2.55a2.05 2.05 0 0 1-.079-.534C7.031.901 7.913 0 9 0c1.088 0 1.969.902 1.969 2.015 0 .158-.022.31-.055.456l3.69 2.171a1.953 1.953 0 0 1 1.419-.614c1.092 0 1.977.902 1.977 2.014a2.002 2.002 0 0 1-1.438 1.928v4.06A2.002 2.002 0 0 1 18 13.959Zm-3.89.483a2.028 2.028 0 0 1-.064-.483c0-.138.014-.272.039-.402l-3.372-1.972c-.342.605-.806 1.141-1.166 1.51v2.965c.339.1.638.292.876.544l3.687-2.162ZM9 9.937c.302 0 .547.245.547.548v1.261c.38-.432.816-1.063.816-1.677C10.364 8.986 9 7.848 9 7.848s-1.363 1.14-1.363 2.222c0 .614.437 1.245.816 1.677v-1.261c0-.303.245-.547.547-.547Zm0 8.952c.49 0 .887-.404.887-.903A.895.895 0 0 0 9 17.084a.895.895 0 0 0-.886.902c0 .498.397.903.886.903Zm-1.421-2.288c.239-.254.54-.44.874-.541v-2.965c-.348-.357-.795-.87-1.135-1.451l-3.395 1.991c.017.106.032.213.032.324 0 .168-.026.329-.065.485L7.579 16.6Zm-6.488-2.642c0 .498.397.902.887.902.489 0 .886-.404.886-.902a.894.894 0 0 0-.886-.903.894.894 0 0 0-.887.903Zm.887-8.82a.894.894 0 0 0-.887.902c0 .5.397.903.887.903.489 0 .886-.404.886-.902a.894.894 0 0 0-.886-.903Zm1.374 2.346c-.23.225-.512.39-.82.48v4.072c.36.11.68.314.923.595l3.436-2.014a2.37 2.37 0 0 1-.073-.549c0-.172.027-.346.067-.518L3.352 7.485ZM7.68 3.502 3.923 5.718c.017.106.032.214.032.325 0 .168-.026.329-.065.485l3.413 1.996c.342-.593.796-1.114 1.15-1.478V3.942a1.976 1.976 0 0 1-.773-.44ZM9 .973a.895.895 0 0 0-.886.903c0 .498.397.903.886.903.49 0 .887-.405.887-.903A.895.895 0 0 0 9 .972Zm5.09 4.65-3.703-2.177c-.23.235-.52.402-.84.498v3.102c.355.364.81.886 1.151 1.48l3.412-2a2.032 2.032 0 0 1-.064-.484c0-.144.016-.283.043-.419Zm.559 1.864-3.532 2.071c.038.17.065.342.065.512 0 .161-.024.322-.059.483l3.466 2.027c.24-.256.543-.443.88-.543V7.965a1.972 1.972 0 0 1-.82-.479Zm2.26-1.444a.894.894 0 0 0-.886-.903.875.875 0 0 0-.682.332l-.147.26a.894.894 0 0 0 .829 1.213c.49 0 .886-.404.886-.903Zm-.886 7.014a.894.894 0 0 0-.886.903c0 .498.396.902.886.902s.886-.404.886-.902a.894.894 0 0 0-.886-.903Z" fill="#27AA8B"/>
</svg>
